X:16100
T:Sunderland Hornpipe
B:Walsh
M:3/2
L:1/8
N:
K:D
DEFG ABcA d4|fgaf e2 dc B2 A2|BcdB A2 GF G2 B2|egbg edcB AGFE |\
DEFG ABcA d4|fgaf e2 dc B2 A2|BcdB A2 GF E2 c2|dBAG FdEc d4::\
ABcd efga f4| bagf gefg c3 A2| DEFG AB=cd B4|egba gfed c2 A2|\
afeB =cedc B2 A2| bgec dfed c2 A2| afge fdec dBAG| F2 d2 E2 c2 d4:|
